public/art/walls/brick-rt.svg

<svg xmlns="http://www.w3.org/2000/svg" width="32" height="32" shape-rendering="crispEdges" viewBox="0 -0.5 16 16"><path stroke="#99a1a8" d="M0 0h3m9 0h1m1 0h2M0 1h1m14 0h1M0 2h1m14 0h1M0 3h1M0 4h1M0 5h1M0 6h1m0 1h1M1 9h1m-2 1h1m14 2h1M0 13h1m-1 1h1m7 0h1m-9 1h3m1 0h2m3 0h3m1 0h1"/><path stroke="#52636d" d="M3 0h1M3 3h1m9 0h1M3 7h1M2 8h1m0 1h1m-1 2h1m0 1h1m6 0h1m-9 1h1m8 0h1m-1 2h1"/><path stroke="#000" d="M4 0h8M4 1h8M4 2h8M4 3h8M4 4h12M4 5h12M4 6h12M4 7h12M4 8h12M4 9h12M4 10h12M4 11h12"/><path stroke="#697f88" d="M13 0h1M3 1h1m8 0h1M3 2h1m10 1h2M3 4h1M3 5h1M3 6h1M0 8h2m1 2h1m-4 2h1m4 0h6m-8 2h1m8 0h1m2 0h1M3 15h1m10 0h1"/><path stroke="#8ea5b2" d="M1 1h2m10 0h2M1 2h2m9 0h3M1 3h2M1 4h2M1 5h2M1 6h2M0 7h1m1 0h1M0 9h1m1 0h1m-2 1h2m-3 1h3m-2 1h2m10 0h2M1 13h2m1 0h8m1 0h3M1 14h2m1 0h4m1 0h3m1 0h2m-9 1h3m6 0h1"/><path stroke="#394451" d="M12 3h1M3 8h1m-1 4h1m8 0h1"/></svg>

<svg xmlns="http://www.w3.org/2000/svg" width="32" height="32" viewBox="0 -0.5 16 16" shape-rendering="crispEdges">
<path stroke="#99a1a8" d="M0 0h3M12 0h1M14 0h2M0 1h1M15 1h1M0 2h1M15 2h1M0 3h1M0 4h1M0 5h1M0 6h1M1 7h1M1 9h1M0 10h1M15 12h1M0 13h1M0 14h1M8 14h1M0 15h3M4 15h2M9 15h3M13 15h1" />
<path stroke="#52636d" d="M3 0h1M3 3h1M13 3h1M3 7h1M2 8h1M3 9h1M3 11h1M4 12h1M11 12h1M3 13h1M12 13h1M12 15h1" />
<path stroke="#000000" d="M4 0h8M4 1h8M4 2h8M4 3h8M4 4h12M4 5h12M4 6h12M4 7h12M4 8h12M4 9h12M4 10h12M4 11h12" />
<path stroke="#697f88" d="M13 0h1M3 1h1M12 1h1M3 2h1M14 3h2M3 4h1M3 5h1M3 6h1M0 8h2M3 10h1M0 12h1M5 12h6M3 14h1M12 14h1M15 14h1M3 15h1M14 15h1" />
<path stroke="#8ea5b2" d="M1 1h2M13 1h2M1 2h2M12 2h3M1 3h2M1 4h2M1 5h2M1 6h2M0 7h1M2 7h1M0 9h1M2 9h1M1 10h2M0 11h3M1 12h2M13 12h2M1 13h2M4 13h8M13 13h3M1 14h2M4 14h4M9 14h3M13 14h2M6 15h3M15 15h1" />
<path stroke="#394451" d="M12 3h1M3 8h1M3 12h1M12 12h1" />
</svg>
